X: 12163
T: Exile Of Columcille, The
R: reel
M: 4/4
K: Gmajor
GA|:Bcdd- deBc-|cdGE- E2EF|GDBA- A2D2|cBAB- BGA/B/d|
d/e/gad- d3A|BDGE- E2D/E/G|BDGG- GAFG-|1 G4- G2GA:|2 G4- GABd||
|:egad- d3B|cBGE- E2EF|GDBA- A2D2|cBAB- Bdfa|
gdba- a2df|gdGE- E2D/E/G|BDGG- GAFG-|1 G4- GABd:|2 G4- G2GA||

